X: 44
P: Longways for as many as will
M: 6/4
L: 1/4
K: C
[|\
E>FG C2c | B>cd G2c/B/ | c>de A>fe | d3 G3 |\
E>FG C2c | B>cd G2g/f/ | e>fg G>cB | c3 C3 |]
[|\
dBd ece | geg afa | geg def | e3 c3 |]

